!! G. F. Handel, Fugue No. 1 from "Sechs kleine Fugen" for keyboard, from
!! 'A Miscellaneous Collection of Instrumental Music by G.F. Handel'
!! Volume 1, Edwin Kalmus (New York) n.d. p.183; in three voices.
!! NOTE: Double-stops occur in bars 10, 40 and 55.  Also note that
!!       a voicing abberation occurs in the 'bass' voice between bars
!!       9 and 10.  (Handel temporarily introduces a 'sub-bass' voice.)
!! NOTE: This file has been validated using the double-entry method of
!!       encoding.
**kern	**kern	**kern
*M2/2	*M2/2	*M2/2
=1	=1	=1
1r	1r	2.cc
.	.	4ee
=2	=2	=2
1r	1r	4ff
.	.	4dd
.	.	4gg
.	.	4ff
=3	=3	=3
1r	1r	4ee
.	.	4cc
.	.	4ee
.	.	4ff#
=4	=4	=4
1r	2.g	4gg
.	.	4dd
.	.	[2gg
.	4b	.
=5	=5	=5
1r	4cc	2gg]
.	4a	.
.	4dd	2ff#
.	4cc	.
=6	=6	=6
1r	4b	2.gg
.	4g	.
.	4a	.
.	4b	4ffn
=7	=7	=7
2.c	4cc	1ee
.	4g	.
.	[2cc	.
4e	.	.
=8	=8	=8
4f	2cc]	1dd
4d	.	.
4g	2b	.
4f	.	.
=9	=9	=9
4e	1cc	1ee
4c	.	.
4e	.	.
4f#	.	.
=10	=10	=10
2.G	4g	1b 1dd
.	4d	.
.	2g	.
4B	.	.
=11	=11	=11
4c	2g	2ee
4A	.	.
4d	2f#	2dd
4c	.	.
=12	=12	=12
4B	2g	[1dd
4G	.	.
4A	2g	.
4B	.	.
=13	=13	=13
4c	2e	2dd]
4B	.	.
4A	2a	[2cc
4G	.	.
=14	=14	=14
4F#	2d	2cc]
4D	.	.
4G	2g	2b
4GG	.	.
=15	=15	=15
4E	2g	1aT
4C	.	.
4D	2f#	.
4DD	.	.
=16	=16	=16
2GG	2.g	2.g
[2G	.	.
.	4r	4b
=17	=17	=17
2G]	1r	4cc
.	.	4a
2F#	.	4dd
.	.	4cc
=18	=18	=18
2.G	1r	4b
.	.	4g
.	.	4a
4Fn	.	4b
=19	=19	=19
2E	2.c	4cc
.	.	4g
2C	.	[2cc
.	4e	.
=20	=20	=20
1D	4f	2cc]
.	4d	.
.	4g	[2b
.	4f	.
=21	=21	=21
1C	4e	2b]
.	4c	.
.	4f	[2a
.	4e	.
=22	=22	=22
1BB	4d	2a]
.	4B	.
.	4e	[2g
.	4d	.
=23	=23	=23
1AA	4c	2g]
.	4A	.
.	4d	[2f
.	4c	.
=24	=24	=24
1GG	4B	2f]
.	4G	.
.	4c	[2e
.	4B	.
=25	=25	=25
1FF	4A	2e]
.	4c	.
.	4B	[2d
.	4A	.
=26	=26	=26
[1EE	4G#	2d]
.	4E	.
.	4A	2c
.	4E	.
=27	=27	=27
2EE]	4G#	2B
.	4E	.
2CC	4c	[2e
.	4B	.
=28	=28	=28
1FF	4A	2e]
.	4c	.
.	4B	2d
.	4A	.
=29	=29	=29
2EE	2G#	2.e
2r	2r	.
.	.	4r
=30	=30	=30
2A	4cc	1r
.	4a	.
2F#	4dd	.
.	4cc	.
=31	=31	=31
4G	4b	2r
4r	4g	.
2e	[2cc	4r
.	.	4ee
=32	=32	=32
1d	2cc]	4ff
.	.	4dd
.	[2b	4gg
.	.	4ff
=33	=33	=33
1c	2b]	4ee
.	.	4cc
.	[2a	4ff
.	.	4ee
=34	=34	=34
1B	2a]	4dd
.	.	4b
.	[2g	4ee
.	.	4dd
=35	=35	=35
1A	2g]	4cc
.	.	4a
.	[2f	4dd
.	.	4cc
=36	=36	=36
1G	2f]	4b
.	.	4g
.	[2e	4cc
.	.	4b
=37	=37	=37
1F	2e]	4a
.	.	4cc
.	[2d	4b
.	.	4a
=38	=38	=38
2E	2d]	4g#
.	.	4e
4F	2c	[2a
4D	.	.
=39	=39	=39
4E	1B	2a]
4D	.	.
4E	.	2g#
4EE	.	.
=40	=40	=40
2.AA	2c 2e	2a
.	2r	2cc
4E	.	.
=41	=41	=41
4F	2a	2cc
4D	.	.
4G	2g	2b
4F	.	.
=42	=42	=42
4E	2c	2cc
4C	.	.
4E	2c	2r
4F#	.	.
=43	=43	=43
4G	2B	2r
4D	.	.
[2G	2r	4r
.	.	4b
=44	=44	=44
2G]	1r	4cc
.	.	4a
2F#	.	4dd
.	.	4cc
=45	=45	=45
2G	2r	4b
.	.	4g
4r	2e	[2cc
4E	.	.
=46	=46	=46
4F	1d	2cc]
4D	.	.
4G	.	[2b
4F	.	.
=47	=47	=47
4E	1c	2b]
4C	.	.
4F	.	[2a
4E	.	.
=48	=48	=48
4D	1B	2a]
4BB	.	.
4E	.	[2g
4D	.	.
=49	=49	=49
4C	1A	2g]
4AA	.	.
4D	.	[2f
4C	.	.
=50	=50	=50
4BB	1G	2f]
4GG	.	.
4C	.	2e
4GG	.	.
=51	=51	=51
4BB	2G	2d
4GG	.	.
4C	2g	2ee
4GG	.	.
=52	=52	=52
4D	1g	2ff
4GG	.	.
4C	.	2ee
4GG	.	.
=53	=53	=53
4BB	2g	2dd
4GG	.	.
4E	2e	2cc
4C	.	.
=54	=54	=54
2G	1d	2cc
2GG	.	2b
=55	=55	=55
1C	1e 1g	1cc
====	====	====
*-	*-	*-
